X:1
T:'Chailleach Oidhche (The Owl)
M:C
L:1/8
Q:80
C:Trad. arr. M. Grey
S:Reel
K:HP
|: {gAGAG}A2{g}eA{g}fA{g}eg | \
{a}G{d}G{g}dB{a}ge{g}dB | \
{gAGAG}A2{g}eA{g}fA{g}eg |
{a}G{d}G{g}Bd{gef}e2{AGAG}A2:| [ | \
{ag}a2egae{g}c{d}A | \
{gf}g2{a}de{a}ge{g}dB |
{ag}a2egae{g}c{d}A | \
{g}G{d}G{g}Bd{gef}e2{AGAG}A2{ag}a2egae{g}c{d}A | \
{g}Gg{a}fg{a}ed{g}Bd |
{g}AB{g}cd{g}eA{d}ca | \
G{d}G{g}Bd{gef}e2{AGAG}A2|]
